X:25
T:Jigg, A
M:6/4
L:1/4
Q:3/4=85
S:D.Wright, Extraordinary Collection, London 1713
Z:Pete Stewart, 2004 <www.hornpipemusic.co.uk>
K:DMIN
f | dAFD2f | e/f/gef/g/ad | c3A2f/e/ | dAFBGE | F/G/AFDd^c | d3D2 :|
 |: E | F/E/F/G/A/B/cAf | e/f/gef/g/ad | c3A2f/e/ | dAFBGE | F/G/AFDd^c | d3D2 :|

